source/img/header/logo-text.svg

<svg width="101" height="18" viewBox="0 0 101 18" fill="none" xmlns="http://www.w3.org/2000/svg">
<g clip-path="url(#clip0)">
<path d="M1.26449 16.5385C0.36955 15.2762 -0.0747041 13.7627 1.02073e-05 12.2308V5.84615C-0.108365 4.29774 0.308071 2.75746 1.18546 1.46154C2.05478 0.461538 3.39829 0 5.37403 0C7.34978 0 8.61425 0.461538 9.40455 1.30769C10.2626 2.37941 10.6846 3.72136 10.59 5.07692V6.61539H6.71754V4.84615C6.74881 4.32289 6.66808 3.799 6.48045 3.30769C6.38016 3.10938 6.2212 2.9448 6.02403 2.83513C5.82686 2.72547 5.60049 2.67572 5.37403 2.69231C4.82082 2.69231 4.42568 2.84615 4.26762 3.23077C4.08883 3.77733 4.00862 4.34988 4.03053 4.92308V13.1538C3.98879 13.71 4.0978 14.267 4.34665 14.7692C4.5047 15.1538 4.89985 15.3077 5.45306 15.3077C6.00627 15.3077 6.32239 15.1538 6.48045 14.7692C6.66013 14.2494 6.74049 13.7019 6.71754 13.1538V11.3077H10.59V12.8462C10.6704 14.2238 10.2508 15.5852 9.40455 16.6923C8.61425 17.6154 7.27075 18.0769 5.37403 18.0769C3.47732 18 2.05478 17.5385 1.26449 16.5385Z" fill="#111111"/>
<path d="M15.2527 0.230774H19.7574L23.0767 17.7692H19.4413L18.8091 14.0769H16.2011L15.5689 17.7692H11.8545L15.2527 0.230774ZM18.493 11.7692L17.5446 4.92308L16.5963 11.7692H18.493Z" fill="#111111"/>
<path d="M25.8427 3.15385H23.1557V0.230774H32.5602V3.07693H29.8732V17.7692H25.8427V3.15385Z" fill="#111111"/>
<path d="M39.752 0.230774H46.7066V2.07693H42.2019V7.84616H45.8372V9.61539H42.2019V16.0769H46.7066V17.8462H39.6729V0.230774H39.752Z" fill="#111111"/>
<path d="M48.7613 0.230774H50.5L55.6369 11.8462V0.230774H57.6917V17.7692H56.1111L50.8951 5.76924V17.7692H48.7613V0.230774Z" fill="#111111"/>
<path d="M60.0626 0.230774H67.0172V2.07693H62.5125V7.84616H66.1479V9.61539H62.5125V16.0769H67.0172V17.8462H60.0626V0.230774Z" fill="#111111"/>
<path d="M69.072 0.230776H72.7074C74.1375 0.134624 75.5587 0.514359 76.7379 1.3077C77.6072 2.00001 78.0024 3.23078 78.0024 4.84616C78.0024 7.07693 77.2911 8.46154 75.7895 8.92308L78.3185 17.6923H75.8686L73.4977 9.46154H71.5219V17.6923H68.993V0.230776H69.072ZM72.5493 7.76924C73.364 7.83458 74.1761 7.61653 74.8412 7.15385C75.3154 6.76924 75.5524 6.00001 75.5524 4.84616C75.5743 4.27297 75.4941 3.70041 75.3154 3.15385C75.1375 2.76166 74.832 2.4373 74.446 2.23078C73.9017 1.98935 73.3042 1.88361 72.7074 1.92308H71.601V7.69231H72.5493V7.76924Z" fill="#111111"/>
<path d="M81.1635 16.4615C80.342 15.1166 79.9564 13.5617 80.0571 12V6.15385C80.0376 5.03911 80.1705 3.9268 80.4522 2.84616C80.7167 2.03863 81.2437 1.33668 81.9538 0.846156C82.8362 0.337752 83.8542 0.0967332 84.8779 0.153848C86.5375 0.153848 87.723 0.538464 88.4343 1.38462C89.2524 2.50191 89.6438 3.86238 89.5407 5.23077V5.84616H87.1698V5.30769C87.1734 4.66346 87.1205 4.0201 87.0117 3.38462C86.9451 2.98304 86.7178 2.62349 86.3795 2.38462C85.9353 2.10082 85.4081 1.96579 84.8779 2C84.3113 1.96466 83.7504 2.12843 83.2973 2.46154C83.1114 2.61401 82.9595 2.80182 82.8508 3.01345C82.742 3.22508 82.6789 3.45608 82.6651 3.69231C82.5609 4.37999 82.5081 5.07412 82.507 5.76923V12.3077C82.4488 13.3038 82.6105 14.3006 82.9812 15.2308C83.2973 15.8462 83.9296 16.0769 84.8779 16.0769C85.2524 16.1223 85.6322 16.0589 85.9697 15.8947C86.3072 15.7304 86.5873 15.4727 86.7746 15.1538C87.1922 14.1811 87.3812 13.1299 87.3278 12.0769V10.8462H85.036V9.07693H89.6197V17.7692H88.0391L87.802 15.7692C87.5948 16.4395 87.1634 17.0231 86.5763 17.4273C85.9892 17.8315 85.2801 18.0331 84.5618 18C83.9088 18.0374 83.2565 17.9164 82.6633 17.6479C82.0702 17.3794 81.5549 16.9717 81.1635 16.4615Z" fill="#111111"/>
<path d="M94.6776 11.6154L90.8052 0.307693H93.1761L95.9421 8.76923L98.6291 0.307693H101L97.1275 11.6154V17.7692H94.7566V11.6154H94.6776Z" fill="#111111"/>
</g>
<defs>
<clipPath id="clip0">
<rect width="101" height="18" fill="white"/>
</clipPath>
</defs>
</svg>

<svg xmlns="http://www.w3.org/2000/svg" viewBox="0 0 101 18"><path d="M1.264 16.538A6.865 6.865 0 010 12.231V5.846a6.95 6.95 0 011.185-4.384C2.055.462 3.398 0 5.374 0s3.24.462 4.03 1.308a5.422 5.422 0 011.186 3.769v1.538H6.718V4.846a3.693 3.693 0 00-.238-1.538 1.12 1.12 0 00-.456-.473 1.163 1.163 0 00-.65-.143c-.553 0-.948.154-1.106.539a4.846 4.846 0 00-.237 1.692v8.23a3.111 3.111 0 00.316 1.616c.158.385.553.539 1.106.539s.87-.154 1.027-.539c.18-.52.26-1.067.238-1.615v-1.846h3.872v1.538a5.775 5.775 0 01-1.185 3.846c-.79.923-2.134 1.385-4.031 1.385-1.897-.077-3.32-.539-4.11-1.539zM15.253.23h4.504l3.32 17.54H19.44l-.632-3.693h-2.608l-.632 3.692h-3.715L15.253.231zm3.24 11.54l-.948-6.847-.949 6.846h1.897zM25.843 3.154h-2.687V.23h9.404v2.846h-2.687v14.692h-4.03V3.154zM39.752.23h6.955v1.847h-4.505v5.77h3.635v1.768h-3.635v6.462h4.505v1.77h-7.034V.23h.079zM48.761.23H50.5l5.137 11.616V.231h2.055v17.538h-1.58l-5.217-12v12h-2.134V.231zM60.063.23h6.954v1.847h-4.504v5.77h3.635v1.768h-3.635v6.462h4.504v1.77h-6.954V.23zM69.072.23h3.635a6.451 6.451 0 014.03 1.078c.87.692 1.265 1.923 1.265 3.538 0 2.23-.71 3.616-2.212 4.077l2.528 8.77h-2.45l-2.37-8.231h-1.976v8.23h-2.529V.231h.079zm3.477 7.54a3.524 3.524 0 002.292-.616c.474-.385.711-1.154.711-2.308a4.848 4.848 0 00-.237-1.692 1.975 1.975 0 00-.869-.923 3.69 3.69 0 00-1.739-.308h-1.106v5.77h.948v.076zM81.163 16.462A7.613 7.613 0 0180.058 12V6.154a12.26 12.26 0 01.395-3.308 3.916 3.916 0 011.502-2c.882-.508 1.9-.75 2.924-.692 1.66 0 2.845.384 3.556 1.23a5.771 5.771 0 011.107 3.847v.615H87.17v-.538a11.03 11.03 0 00-.158-1.923 1.533 1.533 0 00-.633-1A2.493 2.493 0 0084.878 2a2.417 2.417 0 00-1.58.462c-.187.152-.338.34-.447.551a1.701 1.701 0 00-.186.68 14.01 14.01 0 00-.158 2.076v6.539a6.818 6.818 0 00.474 2.923c.316.615.949.846 1.897.846.374.045.754-.018 1.092-.182.337-.165.617-.422.805-.741a6.908 6.908 0 00.553-3.077v-1.23h-2.292v-1.77h4.584v8.692h-1.58l-.238-2a3.143 3.143 0 01-1.226 1.658 3.288 3.288 0 01-2.014.573 4.046 4.046 0 01-1.899-.352 3.932 3.932 0 01-1.5-1.186zM94.678 11.615L90.805.308h2.371l2.766 8.461L98.63.308H101l-3.873 11.307v6.154h-2.37v-6.154h-.08z"/></svg>
